build/img/main/n2.svg

<svg width="392" height="198" viewBox="0 0 392 198" fill="none" xmlns="http://www.w3.org/2000/svg">
<g opacity="0.25">
<path d="M115.701 0L42.3115 194.21H68.7981L87.2835 142.899H168.951L187.988 194.21H214.474L141.084 0H115.701ZM128.117 31.1729L160.673 120.278H95.5606L128.117 31.1729Z" fill="black"/>
<path d="M323.749 102.071V111.45H286.778C252.842 111.45 232.149 127.726 232.149 154.485C232.149 180.968 253.118 197.244 280.156 197.244C297.814 197.244 314.368 190.624 324.852 177.658V194.21H347.2V102.071C347.2 70.8977 325.404 52.1387 292.848 52.1387C261.119 52.1387 241.806 70.0701 237.391 91.5876H260.291C264.154 81.3806 274.086 73.1046 292.296 73.1046C310.23 73.1046 323.749 82.7599 323.749 102.071ZM283.191 176.554C267.741 176.554 256.153 168.83 256.153 154.209C256.153 139.312 269.12 131.588 288.157 131.588H323.749V141.795C323.749 163.037 305.263 176.554 283.191 176.554Z" fill="black"/>
</g>
<g opacity="0.1">
<path d="M73.3899 0L0 194.21H26.4866L44.972 142.899H126.639L145.676 194.21H172.163L98.7729 0H73.3899ZM85.8055 31.1729L118.362 120.278H53.2491L85.8055 31.1729Z" fill="black"/>
<path d="M281.437 102.071V111.45H244.466C210.53 111.45 189.838 127.726 189.838 154.485C189.838 180.968 210.806 197.244 237.845 197.244C255.502 197.244 272.057 190.624 282.541 177.658V194.21H304.889V102.071C304.889 70.8977 283.093 52.1387 250.536 52.1387C218.807 52.1387 199.494 70.0701 195.08 91.5876H217.98C221.842 81.3806 231.775 73.1046 249.984 73.1046C267.918 73.1046 281.437 82.7599 281.437 102.071ZM240.88 176.554C225.429 176.554 213.841 168.83 213.841 154.209C213.841 139.312 226.809 131.588 245.846 131.588H281.437V141.795C281.437 163.037 262.952 176.554 240.88 176.554Z" fill="black"/>
</g>
<path d="M160.501 0L87.1113 194.21H113.598L132.083 142.899H213.75L232.788 194.21H259.274L185.884 0H160.501ZM172.917 31.1729L205.473 120.278H140.36L172.917 31.1729Z" fill="white"/>
<path d="M368.549 102.071V111.45H331.578C297.642 111.45 276.949 127.726 276.949 154.485C276.949 180.968 297.918 197.244 324.956 197.244C342.614 197.244 359.168 190.624 369.652 177.658V194.21H392V102.071C392 70.8977 370.204 52.1387 337.648 52.1387C305.919 52.1387 286.606 70.0701 282.191 91.5876H305.091C308.954 81.3806 318.886 73.1046 337.096 73.1046C355.029 73.1046 368.549 82.7599 368.549 102.071ZM327.991 176.554C312.54 176.554 300.953 168.83 300.953 154.209C300.953 139.312 313.92 131.588 332.957 131.588H368.549V141.795C368.549 163.037 350.063 176.554 327.991 176.554Z" fill="white"/>
</svg>

<svg width="392" height="198" fill="none" xmlns="http://www.w3.org/2000/svg"><path d="M115.701 0l-73.39 194.21h26.487l18.486-51.311h81.667l19.037 51.311h26.486L141.084 0h-25.383zm12.416 31.173l32.556 89.105H95.561l32.556-89.105zm195.632 70.898v9.379h-36.971c-33.936 0-54.629 16.276-54.629 43.035 0 26.483 20.969 42.759 48.007 42.759 17.658 0 34.212-6.62 44.696-19.586v16.552H347.2v-92.139c0-31.173-21.796-49.932-54.352-49.932-31.729 0-51.042 17.931-55.457 39.449h22.9c3.863-10.207 13.795-18.483 32.005-18.483 17.934 0 31.453 9.655 31.453 28.966zm-40.558 74.483c-15.45 0-27.038-7.724-27.038-22.345 0-14.897 12.967-22.621 32.004-22.621h35.592v10.207c0 21.242-18.486 34.759-40.558 34.759z" opacity=".25" fill="#000"/><path d="M73.39 0L0 194.21h26.487l18.485-51.311h81.667l19.037 51.311h26.487L98.773 0H73.39zm12.415 31.173l32.557 89.105H53.249l32.556-89.105zm195.632 70.898v9.379h-36.971c-33.936 0-54.628 16.276-54.628 43.035 0 26.483 20.968 42.759 48.007 42.759 17.657 0 34.212-6.62 44.696-19.586v16.552h22.348v-92.139c0-31.173-21.796-49.932-54.353-49.932-31.729 0-51.042 17.931-55.456 39.449h22.9c3.862-10.207 13.795-18.483 32.004-18.483 17.934 0 31.453 9.655 31.453 28.966zm-40.557 74.483c-15.451 0-27.039-7.724-27.039-22.345 0-14.897 12.968-22.621 32.005-22.621h35.591v10.207c0 21.242-18.485 34.759-40.557 34.759z" opacity=".1" fill="#000"/><path d="M160.501 0l-73.39 194.21h26.487l18.485-51.311h81.667l19.038 51.311h26.486L185.884 0h-25.383zm12.416 31.173l32.556 89.105H140.36l32.557-89.105zm195.632 70.898v9.379h-36.971c-33.936 0-54.629 16.276-54.629 43.035 0 26.483 20.969 42.759 48.007 42.759 17.658 0 34.212-6.62 44.696-19.586v16.552H392v-92.139c0-31.173-21.796-49.932-54.352-49.932-31.729 0-51.042 17.931-55.457 39.449h22.9c3.863-10.207 13.795-18.483 32.005-18.483 17.933 0 31.453 9.655 31.453 28.966zm-40.558 74.483c-15.451 0-27.038-7.724-27.038-22.345 0-14.897 12.967-22.621 32.004-22.621h35.592v10.207c0 21.242-18.486 34.759-40.558 34.759z" fill="#fff"/></svg>
